static/images/globe.svg

<svg xmlns="http://www.w3.org/2000/svg" viewBox="0 0 10 10">
  <path d="M4.9654 0C2.2276 0 0 2.2274 0 4.9652 0 6.0878.3656 7.147 1.057 8.0278c.9486 1.209 2.3732 1.903 3.9084 1.903 1.5352 0 2.9598-.694 3.9086-1.9034.6912-.8808 1.0566-1.94 1.0566-3.0624C9.9306 2.2274 7.7032 0 4.9654 0zm1.905 4.674c-.0216-.482-.0946-.936-.2008-1.3568.6132-.1488 1.1402-.362 1.5716-.5824.3828.5604.6222 1.224.6746 1.9392H6.8704zm-1.939 4.2558c-.014-.0002-.0278-.0012-.0416-.0016-.2566-.3312-.6612-.9414-.9564-1.7872.3222-.0508.666-.0822 1.0322-.0822.3228 0 .6288.0242.9184.0644-.3008.825-.7022 1.458-.9526 1.8066zm.034-2.4706c-.43 0-.8302.0408-1.2044.1042-.0976-.392-.1666-.8224-.188-1.2896h2.699c-.0242.4504-.0996.876-.205 1.27-.3452-.053-.7126-.0846-1.1016-.0846zM1.015 4.674c.0524-.7152.2918-1.3788.6746-1.9392.4068.2078.9008.4096 1.472.557-.0998.4212-.1668.8828-.1864 1.3824L1.015 4.674zm2.5576 0c.0198-.4534.0846-.8726.1774-1.2562.378.0642.7834.1022 1.2152.1022.3942 0 .7652-.0324 1.1144-.0866.1.3856.1706.801.1928 1.2404l-2.6998.0002zm1.3602-3.6724c.2552.3546.6668 1.0042.969 1.8516-.2954.0418-.607.0668-.9366.0668-.3706 0-.7194-.0308-1.0466-.0828.2964-.8676.7104-1.4946.9712-1.8334.0144-.0002.0284-.002.043-.0022zm2.9208 1.2556c-.3792.1846-.8316.3592-1.352.483-.2336-.6854-.5364-1.2528-.797-1.6686.8404.1594 1.586.5852 2.149 1.1856zM4.0846 1.102c-.2568.4002-.5422.9416-.7618 1.612-.4764-.1218-.8932-.2852-1.246-.4568.5316-.5664 1.225-.9768 2.0078-1.1552zm-3.072 4.172h1.9628c.0214.5124.093.985.198 1.4146-.5814.1492-1.0718.3492-1.4578.5446-.4082-.5826-.649-1.2506-.703-1.9592zm1.0912 2.435c.337-.1616.754-.3212 1.2344-.4436.2182.6508.498 1.1766.7494 1.5678-.7548-.1696-1.442-.5574-1.9838-1.1242zm3.5994 1.1524c.2552-.4064.5514-.959.7832-1.6258.5176.122.9664.2946 1.3402.4738-.575.6012-1.314 1.0004-2.1234 1.152zM8.2158 7.232c-.4244-.2144-.9464-.4252-1.5576-.5722.1112-.4288.1876-.8926.2116-1.3858H8.918c-.0538.708-.2944 1.3758-.7022 1.958z" fill="#5C4B51" fill-rule="evenodd"/>
</svg>

<?xml version="1.0" encoding="UTF-8"?>
<svg width="10px" height="10px" viewBox="0 0 10 10" version="1.1" xmlns="http://www.w3.org/2000/svg" xmlns:xlink="http://www.w3.org/1999/xlink">
    <!-- Generator: Sketch 40.2 (33826) - http://www.bohemiancoding.com/sketch -->
    <title>Shape</title>
    <desc>Created with Sketch.</desc>
    <defs></defs>
    <g id="Symbols" stroke="none" stroke-width="1" fill="none" fill-rule="evenodd">
        <g id="Globe" fill="#5C4B51">
            <path d="M4.9654,0 C2.2276,0 0,2.2274 0,4.9652 C0,6.0878 0.3656,7.147 1.057,8.0278 C2.0056,9.2368 3.4302,9.9308 4.9654,9.9308 C6.5006,9.9308 7.9252,9.2368 8.874,8.0274 C9.5652,7.1466 9.9306,6.0874 9.9306,4.965 C9.9306,2.2274 7.7032,0 4.9654,0 L4.9654,0 Z M6.8704,4.674 C6.8488,4.192 6.7758,3.738 6.6696,3.3172 C7.2828,3.1684 7.8098,2.9552 8.2412,2.7348 C8.624,3.2952 8.8634,3.9588 8.9158,4.674 L6.8704,4.674 L6.8704,4.674 L6.8704,4.674 Z M4.9314,8.9298 C4.9174,8.9296 4.9036,8.9286 4.8898,8.9282 C4.6332,8.597 4.2286,7.9868 3.9334,7.141 C4.2556,7.0902 4.5994,7.0588 4.9656,7.0588 C5.2884,7.0588 5.5944,7.083 5.884,7.1232 C5.5832,7.9482 5.1818,8.5812 4.9314,8.9298 L4.9314,8.9298 Z M4.9654,6.4592 C4.5354,6.4592 4.1352,6.5 3.761,6.5634 C3.6634,6.1714 3.5944,5.741 3.573,5.2738 L6.272,5.2738 C6.2478,5.7242 6.1724,6.1498 6.067,6.5438 C5.7218,6.4908 5.3544,6.4592 4.9654,6.4592 L4.9654,6.4592 Z M1.015,4.674 C1.0674,3.9588 1.3068,3.2952 1.6896,2.7348 C2.0964,2.9426 2.5904,3.1444 3.1616,3.2918 C3.0618,3.713 2.9948,4.1746 2.9752,4.6742 L1.015,4.674 L1.015,4.674 L1.015,4.674 Z M3.5726,4.674 C3.5924,4.2206 3.6572,3.8014 3.75,3.4178 C4.128,3.482 4.5334,3.52 4.9652,3.52 C5.3594,3.52 5.7304,3.4876 6.0796,3.4334 C6.1796,3.819 6.2502,4.2344 6.2724,4.6738 L3.5726,4.674 L3.5726,4.674 L3.5726,4.674 Z M4.9328,1.0016 C5.188,1.3562 5.5996,2.0058 5.9018,2.8532 C5.6064,2.895 5.2948,2.92 4.9652,2.92 C4.5946,2.92 4.2458,2.8892 3.9186,2.8372 C4.215,1.9696 4.629,1.3426 4.8898,1.0038 C4.9042,1.0036 4.9182,1.0018 4.9328,1.0016 L4.9328,1.0016 Z M7.8536,2.2572 C7.4744,2.4418 7.022,2.6164 6.5016,2.7402 C6.268,2.0548 5.9652,1.4874 5.7046,1.0716 C6.545,1.231 7.2906,1.6568 7.8536,2.2572 L7.8536,2.2572 Z M4.0846,1.102 C3.8278,1.5022 3.5424,2.0436 3.3228,2.714 C2.8464,2.5922 2.4296,2.4288 2.0768,2.2572 C2.6084,1.6908 3.3018,1.2804 4.0846,1.102 L4.0846,1.102 Z M1.0126,5.274 L2.9754,5.274 C2.9968,5.7864 3.0684,6.259 3.1734,6.6886 C2.592,6.8378 2.1016,7.0378 1.7156,7.2332 C1.3074,6.6506 1.0666,5.9826 1.0126,5.274 L1.0126,5.274 Z M2.1038,7.709 C2.4408,7.5474 2.8578,7.3878 3.3382,7.2654 C3.5564,7.9162 3.8362,8.442 4.0876,8.8332 C3.3328,8.6636 2.6456,8.2758 2.1038,7.709 L2.1038,7.709 Z M5.7032,8.8614 C5.9584,8.455 6.2546,7.9024 6.4864,7.2356 C7.004,7.3576 7.4528,7.5302 7.8266,7.7094 C7.2516,8.3106 6.5126,8.7098 5.7032,8.8614 L5.7032,8.8614 Z M8.2158,7.232 C7.7914,7.0176 7.2694,6.8068 6.6582,6.6598 C6.7694,6.231 6.8458,5.7672 6.8698,5.274 L8.918,5.274 C8.8642,5.982 8.6236,6.6498 8.2158,7.232 L8.2158,7.232 Z" id="Shape"></path>
        </g>
    </g>
</svg>
